;FLAVOR:Marlin
;TIME:10057
;Filament used: 6.53103m
;Layer height: 0.2
;MINX:71.5
;MINY:57.5
;MINZ:0.2
;MAXX:163.498
;MAXY:177.5
;MAXZ:22
;Generated with Cura_SteamEngine 5.0.0
M140 S50
M105
M190 S50
M104 S200
M105
M109 S200
M82 ;absolute extrusion mode
; Ender 3 Custom Start G-code
G92 E0 ; Reset Extruder
G28 ; Home all axes
G1 Z2.0 F3000 ; Move Z Axis up little to prevent scratching of Heat Bed
G1 X0.1 Y20 Z0.3 F5000.0 ; Move to start position
G1 X0.1 Y200.0 Z0.3 F1500.0 E15 ; Draw the first line
G1 X0.4 Y200.0 Z0.3 F5000.0 ; Move to side a little
G1 X0.4 Y20 Z0.3 F1500.0 E30 ; Draw the second line
G92 E0 ; Reset Extruder
G1 Z2.0 F3000 ; Move Z Axis up little to prevent scratching of Heat Bed
G1 X5 Y20 Z0.3 F5000.0 ; Move over to prevent blob squish
G92 E0
G92 E0
G1 F2700 E-5
;LAYER_COUNT:110
;LAYER:0
M107
G0 F6000 X75.194 Y62.669 Z0.2
G0 X71.502 Y72.984
;TYPE:SKIRT
G1 F2700 E0
G1 F1200 X71.52 Y72.098 E0.02947
G1 X71.569 Y71.264 E0.05726
G1 X71.614 Y70.798 E0.07283
G1 X71.787 Y69.646 E0.11158
G1 X71.941 Y68.961 E0.13493
G1 X72.05 Y68.536 E0.14952
G1 X72.429 Y67.343 E0.19116
G1 X72.697 Y66.673 E0.21516
G1 X72.863 Y66.291 E0.22901
G1 X73.417 Y65.189 E0.27003
G1 X73.74 Y64.648 E0.29099
G1 X73.976 Y64.275 E0.30567
G1 X74.672 Y63.297 E0.3456
G1 X75.194 Y62.669 E0.37276
G1 X75.481 Y62.347 E0.3871
G1 X76.285 Y61.535 E0.42511
G1 X76.812 Y61.071 E0.44846
G1 X77.138 Y60.801 E0.46254
G1 X78.128 Y60.07 E0.50347
G1 X78.746 Y59.681 E0.52776
G1 X79.132 Y59.454 E0.54266
G1 X79.96 Y59.014 E0.57384
G1 X80.507 Y58.77 E0.59376
G1 X81.049 Y58.546 E0.61327
G1 X82.27 Y58.123 E0.65625
G1 X82.501 Y58.058 E0.66423
G1 X83.146 Y57.898 E0.68633
G1 X83.565 Y57.807 E0.70059
G1 X84.49 Y57.647 E0.73181
G1 X85.054 Y57.589 E0.75067
G1 X85.663 Y57.542 E0.77099
G1 X86.31 Y57.511 E0.79253
G1 X87.006 Y57.5 E0.81568
G1 X147.793 Y57.5 E2.83747
G1 X148.902 Y57.52 E2.87436
G1 X149.733 Y57.569 E2.90205
G1 X150.2 Y57.614 E2.91765
G1 X151.354 Y57.787 E2.95646
G1 X152.039 Y57.941 E2.97981
G1 X152.464 Y58.05 E2.99441
G1 X153.643 Y58.424 E3.03555
G1 X154.319 Y58.694 E3.05976
G1 X154.708 Y58.863 E3.07386
G1 X155.811 Y59.417 E3.11492
G1 X156.352 Y59.74 E3.13587
G1 X156.725 Y59.976 E3.15055
G1 X157.716 Y60.682 E3.19102
G1 X158.307 Y61.174 E3.2166
G1 X158.637 Y61.467 E3.23128
G1 X159.473 Y62.294 E3.27039
G1 X159.919 Y62.801 E3.29285
G1 X160.192 Y63.13 E3.30707
G1 X160.93 Y64.128 E3.34835
G1 X161.287 Y64.693 E3.37058
G1 X161.508 Y65.064 E3.38494
G1 X162.108 Y66.22 E3.42826
G1 X162.359 Y66.808 E3.44953
G1 X162.515 Y67.2 E3.46356
G1 X162.912 Y68.39 E3.50528
G1 X163.102 Y69.146 E3.53121
G1 X163.193 Y69.565 E3.54547
G1 X163.38 Y70.714 E3.58419
G1 X163.444 Y71.444 E3.60856
G1 X163.478 Y72.044 E3.62855
G1 X163.496 Y72.665 E3.64921
G1 X163.498 Y134.016 E5.68976
G1 X163.48 Y134.902 E5.71923
G1 X163.435 Y135.692 E5.74555
G1 X163.393 Y136.146 E5.76071
G1 X163.207 Y137.386 E5.80242
G1 X163.061 Y138.032 E5.82445
G1 X162.952 Y138.458 E5.83907
G1 X162.576 Y139.643 E5.88042
G1 X162.311 Y140.307 E5.9042
G1 X162.035 Y140.937 E5.92708
G1 X161.74 Y141.574 E5.95042
G1 X160.681 Y143.942 E6.0367
G1 X159.716 Y146.279 E6.1208
G1 X158.837 Y148.587 E6.20294
G1 X157.991 Y151.012 E6.28836
G1 X157.249 Y153.353 E6.37004
G1 X156.542 Y155.819 E6.45537
G1 X155.917 Y158.261 E6.53921
G1 X155.364 Y160.708 E6.62265
G1 X154.883 Y163.158 E6.70569
G1 X154.433 Y165.848 E6.7964
G1 X154.368 Y166.278 E6.81087
G1 X154.242 Y166.963 E6.83403
G1 X154.128 Y167.487 E6.85187
G1 X153.889 Y168.395 E6.8831
G1 X153.528 Y169.391 E6.91833
G1 X153.416 Y169.659 E6.92799
G1 X153.018 Y170.508 E6.95918
G1 X152.609 Y171.224 E6.98661
G1 X152.448 Y171.483 E6.99675
G1 X151.919 Y172.258 E7.02796
G1 X151.368 Y172.941 E7.05714
G1 X150.733 Y173.631 E7.08833
G1 X150.272 Y174.064 E7.10937
G1 X149.951 Y174.349 E7.12365
G1 X149.224 Y174.941 E7.15483
G1 X148.404 Y175.497 E7.18778
G1 X148.163 Y175.645 E7.19719
G1 X147.344 Y176.101 E7.22837
G1 X146.623 Y176.431 E7.25474
G1 X146.329 Y176.553 E7.26533
G1 X145.448 Y176.875 E7.29652
G1 X144.744 Y177.074 E7.32086
G1 X144.537 Y177.125 E7.32795
G1 X143.618 Y177.31 E7.35913
G1 X143.001 Y177.389 E7.37982
G1 X142.511 Y177.438 E7.39619
G1 X141.575 Y177.492 E7.42738
G1 X140.933 Y177.5 E7.44873
G1 X94.016 Y177.498 E9.0092
G1 X93.211 Y177.484 E9.03598
G1 X92.263 Y177.427 E9.06756
G1 X90.95 Y177.223 E9.11176
G1 X90.501 Y177.125 E9.12704
G1 X89.594 Y176.886 E9.15824
G1 X88.578 Y176.516 E9.1942
G1 X88.312 Y176.404 E9.2038
G1 X87.464 Y176.004 E9.23499
G1 X86.754 Y175.596 E9.26222
G1 X86.493 Y175.433 E9.27246
G1 X85.72 Y174.903 E9.30363
G1 X85.025 Y174.339 E9.3334
G1 X84.337 Y173.701 E9.36461
G1 X83.926 Y173.262 E9.38461
G1 X83.645 Y172.945 E9.3987
G1 X83.054 Y172.217 E9.42989
G1 X82.498 Y171.396 E9.46287
G1 X82.346 Y171.148 E9.47254
G1 X81.891 Y170.328 E9.50373
G1 X81.551 Y169.583 E9.53097
G1 X81.433 Y169.296 E9.54129
G1 X81.114 Y168.414 E9.57249
G1 X80.905 Y167.656 E9.59864
G1 X80.833 Y167.353 E9.609
G1 X80.682 Y166.604 E9.63441
G1 X80.536 Y165.713 E9.66444
G1 X80.372 Y164.623 E9.7011
G1 X79.927 Y162.143 E9.7849
G1 X79.42 Y159.711 E9.86753
G1 X78.826 Y157.221 E9.95267
G1 X78.173 Y154.793 E10.0363
G1 X77.455 Y152.39 E10.11971
G1 X76.675 Y150.026 E10.20251
G1 X75.798 Y147.606 E10.28812
G1 X74.886 Y145.292 E10.37085
G1 X73.914 Y143.016 E10.45316
G1 X73.405 Y141.919 E10.49338
G1 X72.827 Y140.632 E10.54031
G1 X72.642 Y140.197 E10.55603
G1 X72.485 Y139.803 E10.57014
G1 X72.081 Y138.587 E10.61276
G1 X71.898 Y137.854 E10.63788
G1 X71.807 Y137.435 E10.65214
G1 X71.647 Y136.51 E10.68337
G1 X71.589 Y135.946 E10.70222
G1 X71.542 Y135.337 E10.72254
G1 X71.511 Y134.69 E10.74408
G1 X71.5 Y133.994 E10.76724
G1 X71.502 Y72.984 E12.79644
G0 F6000 X71.902 Y72.992
G1 F1200 X71.92 Y72.106 E12.82591
G1 X71.967 Y71.302 E12.8527
G1 X72.012 Y70.836 E12.86827
G1 X72.179 Y69.727 E12.90557
G1 X72.328 Y69.061 E12.92827
G1 X72.437 Y68.636 E12.94286
G1 X72.803 Y67.486 E12.983
G1 X73.064 Y66.832 E13.00642
G1 X73.23 Y66.45 E13.02028
G1 X73.764 Y65.389 E13.05978
G1 X74.078 Y64.861 E13.08021
G1 X74.314 Y64.488 E13.0949
G1 X74.985 Y63.546 E13.13336
G1 X75.493 Y62.935 E13.15979
G1 X75.78 Y62.613 E13.17414
G1 X76.554 Y61.831 E13.21073
G1 X77.067 Y61.379 E13.23347
G1 X77.393 Y61.109 E13.24755
G1 X78.347 Y60.405 E13.28699
G1 X78.949 Y60.026 E13.31065
G1 X79.335 Y59.799 E13.32554
G1 X80.148 Y59.367 E13.35616
G1 X80.659 Y59.14 E13.37476
G1 X81.201 Y58.916 E13.39426
G1 X82.379 Y58.508 E13.43573
G1 X82.61 Y58.443 E13.44371
G1 X83.231 Y58.288 E13.465
G1 X83.65 Y58.197 E13.47926
G1 X84.558 Y58.041 E13.5099
G1 X85.084 Y57.987 E13.52749
G1 X85.693 Y57.94 E13.5478
G1 X86.317 Y57.911 E13.56858
G1 X87.006 Y57.9 E13.5915
G1 X147.793 Y57.9 E15.61328
G1 X148.894 Y57.92 E15.64991
G1 X149.695 Y57.967 E15.6766
G1 X150.162 Y58.012 E15.6922
G1 X151.273 Y58.179 E15.72957
G1 X151.939 Y58.328 E15.75227
G1 X152.364 Y58.437 E15.76686
G1 X153.501 Y58.798 E15.80654
G1 X154.16 Y59.061 E15.83014
G1 X154.549 Y59.23 E15.84424
G1 X155.611 Y59.764 E15.88378
G1 X156.139 Y60.078 E15.90421
G1 X156.512 Y60.314 E15.91889
G1 X157.466 Y60.995 E15.95788
G1 X158.042 Y61.473 E15.98277
G1 X158.372 Y61.766 E15.99745
G1 X159.177 Y62.563 E16.03513
G1 X159.611 Y63.056 E16.05697
G1 X159.884 Y63.385 E16.07119
G1 X160.595 Y64.347 E16.11098
G1 X160.944 Y64.897 E16.13264
G1 X161.165 Y65.268 E16.14701
G1 X161.742 Y66.383 E16.18876
G1 X161.988 Y66.956 E16.2095
G1 X162.144 Y67.348 E16.22354
G1 X162.526 Y68.494 E16.26371
G1 X162.712 Y69.231 E16.289
G1 X162.803 Y69.65 E16.30326
G1 X162.982 Y70.757 E16.34055
G1 X163.045 Y71.466 E16.36423
G1 X163.079 Y72.066 E16.38422
G1 X163.096 Y72.665 E16.40415
G1 X163.098 Y134.008 E18.44442
G1 X163.08 Y134.894 E18.4739
G1 X163.037 Y135.655 E18.49925
G1 X162.995 Y136.109 E18.51441
G1 X162.815 Y137.305 E18.55464
G1 X162.673 Y137.933 E18.57606
G1 X162.564 Y138.359 E18.59068
G1 X162.202 Y139.501 E18.63053
G1 X161.944 Y140.148 E18.65369
G1 X161.672 Y140.769 E18.67624
G1 X161.371 Y141.42 E18.7001
G1 X160.331 Y143.744 E18.78478
G1 X159.35 Y146.12 E18.87028
G1 X158.446 Y148.492 E18.95471
G1 X157.619 Y150.865 E19.03829
G1 X156.856 Y153.269 E19.12218
G1 X156.158 Y155.706 E19.20649
G1 X155.533 Y158.146 E19.29026
G1 X154.975 Y160.615 E19.37445
G1 X154.483 Y163.12 E19.45936
G1 X154.048 Y165.722 E19.54711
G1 X153.973 Y166.218 E19.56379
G1 X153.851 Y166.878 E19.58612
G1 X153.737 Y167.402 E19.60395
G1 X153.502 Y168.293 E19.6346
G1 X153.159 Y169.236 E19.66797
G1 X153.047 Y169.504 E19.67763
G1 X152.656 Y170.338 E19.70827
G1 X152.269 Y171.013 E19.73415
G1 X152.108 Y171.272 E19.74429
G1 X151.589 Y172.032 E19.7749
G1 X151.063 Y172.683 E19.80274
G1 X150.438 Y173.359 E19.83336
G1 X150.007 Y173.765 E19.85305
G1 X149.686 Y174.05 E19.86733
G1 X148.971 Y174.63 E19.89795
G1 X148.195 Y175.156 E19.92913
G1 X147.954 Y175.304 E19.93854
G1 X147.149 Y175.751 E19.96916
G1 X146.47 Y176.062 E19.994
G1 X146.176 Y176.184 E20.00459
G1 X145.311 Y176.499 E20.03521
G1 X144.649 Y176.685 E20.05808
G1 X144.442 Y176.736 E20.06517
G1 X143.539 Y176.917 E20.0958
G1 X142.961 Y176.991 E20.11518
G1 X142.471 Y177.04 E20.13156
G1 X141.57 Y177.092 E20.16158
G1 X140.933 Y177.1 E20.18277
G1 X94.023 Y177.098 E21.743
G1 X93.218 Y177.084 E21.76978
G1 X92.3 Y177.029 E21.80037
G1 X91.036 Y176.832 E21.84292
G1 X90.587 Y176.734 E21.8582
G1 X89.697 Y176.499 E21.88882
G1 X88.734 Y176.147 E21.92292
G1 X88.468 Y176.035 E21.93252
G1 X87.635 Y175.642 E21.96315
G1 X86.966 Y175.257 E21.98883
G1 X86.705 Y175.094 E21.99906
G1 X85.946 Y174.573 E22.02968
G1 X85.284 Y174.034 E22.05807
G1 X84.61 Y173.407 E22.08869
G1 X84.226 Y172.996 E22.1074
G1 X83.945 Y172.679 E22.12149
G1 X83.365 Y171.965 E22.15208
G1 X82.839 Y171.187 E22.18332
G1 X82.687 Y170.939 E22.19299
G1 X82.241 Y170.134 E22.2236
G1 X81.921 Y169.431 E22.24929
G1 X81.803 Y169.144 E22.25961
G1 X81.491 Y168.278 E22.29023
G1 X81.294 Y167.564 E22.31487
G1 X81.222 Y167.261 E22.32522
G1 X81.077 Y166.539 E22.34972
G1 X80.932 Y165.654 E22.37954
G1 X80.768 Y164.564 E22.41621
G1 X80.319 Y162.063 E22.50072
G1 X79.808 Y159.61 E22.58406
G1 X79.222 Y157.155 E22.66801
G1 X78.559 Y154.689 E22.75294
G1 X77.832 Y152.256 E22.8374
G1 X77.055 Y149.902 E22.91984
G1 X76.175 Y147.472 E23.0058
G1 X75.25 Y145.125 E23.08971
G1 X74.275 Y142.844 E23.17221
G1 X73.769 Y141.755 E23.21215
G1 X73.191 Y140.468 E23.25908
G1 X72.857 Y139.655 E23.28831
G1 X72.468 Y138.483 E23.32938
G1 X72.288 Y137.769 E23.35387
G1 X72.197 Y137.35 E23.36814
G1 X72.041 Y136.442 E23.39878
G1 X71.987 Y135.916 E23.41637
G1 X71.94 Y135.307 E23.43668
G1 X71.911 Y134.683 E23.45746
G1 X71.9 Y133.994 E23.48038
G1 X71.902 Y72.992 E25.50931
G0 F6000 X72.302 Y73
G1 F1200 X72.32 Y72.114 E25.53879
G1 X72.365 Y71.341 E25.56454
G1 X72.41 Y70.875 E25.58011
G1 X72.571 Y69.807 E25.61603
G1 X72.716 Y69.16 E25.63809
G1 X72.825 Y68.735 E25.65268
G1 X73.177 Y67.629 E25.69128
G1 X73.431 Y66.992 E25.71409
G1 X73.597 Y66.61 E25.72795
G1 X74.111 Y65.588 E25.766
G1 X74.416 Y65.075 E25.78585
G1 X74.652 Y64.702 E25.80053
G1 X75.298 Y63.796 E25.83754
G1 X75.792 Y63.201 E25.86326
G1 X76.079 Y62.879 E25.8776
G1 X76.823 Y62.126 E25.91281
G1 X77.322 Y61.687 E25.93492
G1 X77.648 Y61.417 E25.949
G1 X78.567 Y60.739 E25.98698
G1 X79.151 Y60.371 E26.00994
G1 X79.537 Y60.144 E26.02483
G1 X80.335 Y59.721 E26.05487
G1 X80.812 Y59.509 E26.07223
G1 X81.354 Y59.285 E26.09174
G1 X82.487 Y58.893 E26.13161
G1 X82.718 Y58.828 E26.1396
G1 X83.316 Y58.679 E26.16009
G1 X83.735 Y58.588 E26.17435
G1 X84.625 Y58.436 E26.20438
G1 X85.115 Y58.386 E26.22077
G1 X85.724 Y58.339 E26.24108
G1 X86.324 Y58.311 E26.26106
G1 X87.006 Y58.3 E26.28375
G1 X147.793 Y58.3 E28.30553
G1 X148.885 Y58.32 E28.34186
G1 X149.656 Y58.365 E28.36754
G1 X150.123 Y58.41 E28.38315
G1 X151.193 Y58.571 E28.41914
G1 X151.84 Y58.716 E28.44119
G1 X152.265 Y58.825 E28.45578
G1 X153.358 Y59.172 E28.49392
G1 X154 Y59.428 E28.51691
G1 X154.389 Y59.597 E28.53102
G1 X155.412 Y60.111 E28.5691
G1 X155.925 Y60.416 E28.58895
G1 X156.298 Y60.652 E28.60363
G1 X157.216 Y61.307 E28.64114
G1 X157.776 Y61.773 E28.66537
G1 X158.106 Y62.066 E28.68005
G1 X158.881 Y62.832 E28.71629
G1 X159.304 Y63.312 E28.73757
G1 X159.577 Y63.641 E28.75179
G1 X160.261 Y64.567 E28.79008
G1 X160.6 Y65.102 E28.81114
G1 X160.821 Y65.473 E28.82551
G1 X161.377 Y66.546 E28.8657
G1 X161.616 Y67.103 E28.88586
G1 X161.772 Y67.495 E28.89989
G1 X162.14 Y68.599 E28.9386
G1 X162.321 Y69.316 E28.96319
G1 X162.412 Y69.735 E28.97745
G1 X162.585 Y70.8 E29.01334
G1 X162.646 Y71.489 E29.03635
G1 X162.68 Y72.089 E29.05633
G1 X162.696 Y72.665 E29.0755
G1 X162.698 Y134 E31.11551
G1 X162.68 Y134.886 E31.14498
G1 X162.639 Y135.619 E31.1694
G1 X162.597 Y136.073 E31.18457
G1 X162.424 Y137.223 E31.22325
G1 X162.286 Y137.833 E31.24405
G1 X162.177 Y138.259 E31.25867
G1 X161.828 Y139.358 E31.29702
G1 X161.577 Y139.99 E31.31964
G1 X161.309 Y140.601 E31.34183
G1 X161.015 Y141.236 E31.36511
G1 X159.952 Y143.613 E31.45171
G1 X158.972 Y145.986 E31.5371
G1 X158.07 Y148.354 E31.62138
G1 X157.246 Y150.717 E31.70462
G1 X156.477 Y153.143 E31.78927
G1 X155.772 Y155.602 E31.87435
G1 X155.141 Y158.064 E31.95888
G1 X154.578 Y160.555 E32.04382
G1 X154.096 Y163.015 E32.1272
G1 X153.641 Y165.738 E32.21902
G1 X153.577 Y166.157 E32.23312
G1 X153.46 Y166.793 E32.25463
G1 X153.346 Y167.317 E32.27246
G1 X153.115 Y168.19 E32.3025
G1 X152.79 Y169.082 E32.33407
G1 X152.678 Y169.35 E32.34373
G1 X152.293 Y170.167 E32.37377
G1 X151.93 Y170.802 E32.3981
G1 X151.769 Y171.061 E32.40824
G1 X151.258 Y171.806 E32.43829
G1 X150.757 Y172.424 E32.46475
G1 X150.144 Y173.088 E32.49481
G1 X149.741 Y173.466 E32.51319
G1 X149.42 Y173.751 E32.52746
G1 X148.719 Y174.32 E32.55749
G1 X147.986 Y174.815 E32.58691
G1 X147.745 Y174.963 E32.59632
G1 X146.955 Y175.401 E32.62636
G1 X146.316 Y175.692 E32.64971
G1 X146.022 Y175.814 E32.6603
G1 X145.174 Y176.123 E32.69032
G1 X144.346 Y176.348 E32.71886
G1 X143.46 Y176.525 E32.74891
G1 X142.921 Y176.593 E32.76698
G1 X142.431 Y176.642 E32.78336
G1 X141.564 Y176.692 E32.81224
G1 X140.933 Y176.7 E32.83323
G1 X94.03 Y176.698 E34.39323
G1 X93.225 Y176.684 E34.42001
G1 X92.338 Y176.631 E34.44956
G1 X91.121 Y176.441 E34.49053
G1 X90.672 Y176.343 E34.50582
G1 X89.799 Y176.112 E34.53585
G1 X88.889 Y175.779 E34.56808
G1 X88.623 Y175.667 E34.57768
G1 X87.807 Y175.28 E34.60772
G1 X87.178 Y174.917 E34.63187
G1 X86.917 Y174.754 E34.64211
G1 X86.173 Y174.243 E34.67213
G1 X85.544 Y173.73 E34.69912
G1 X84.883 Y173.114 E34.72918
G1 X84.525 Y172.731 E34.74661
G1 X84.244 Y172.414 E34.7607
G1 X83.676 Y171.712 E34.79074
G1 X83.18 Y170.978 E34.8202
G1 X83.028 Y170.73 E34.82988
G1 X82.591 Y169.94 E34.8599
G1 X82.291 Y169.279 E34.88405
G1 X82.173 Y168.992 E34.89437
G1 X81.867 Y168.142 E34.92442
G1 X81.683 Y167.471 E34.94756
G1 X81.611 Y167.168 E34.95792
G1 X81.472 Y166.473 E34.98149
G1 X81.327 Y165.594 E35.01112
G1 X81.158 Y164.471 E35.04889
G1 X80.717 Y162.017 E35.13182
G1 X80.195 Y159.507 E35.21709
G1 X79.604 Y157.03 E35.30179
G1 X78.953 Y154.609 E35.38517
G1 X78.219 Y152.153 E35.47043
G1 X77.413 Y149.714 E35.55586
G1 X76.564 Y147.368 E35.63884
G1 X75.63 Y144.999 E35.72354
G1 X74.624 Y142.645 E35.80868
G1 X74.134 Y141.591 E35.84734
G1 X73.556 Y140.304 E35.89427
G1 X73.229 Y139.507 E35.92292
G1 X72.854 Y138.379 E35.96246
G1 X72.679 Y137.684 E35.98629
G1 X72.588 Y137.265 E36.00055
G1 X72.436 Y136.375 E36.03058
G1 X72.386 Y135.885 E36.04697
G1 X72.339 Y135.276 E36.06728
G1 X72.311 Y134.676 E36.08726
G1 X72.3 Y133.994 E36.10995
G1 X72.302 Y73 E38.13862
G1 F2700 E33.13862
;MESH:Case.STL
G0 F6000 X91.719 Y78.5
G0 X91.962 Y129.038
G0 X92.5 Y129.11
G1 F2700 E38.13862
